X: 3007
T: A New Scotch Tune.
%R: reel
B: Henry Playford "Apollo's Banquet", London 1687 (5th Edition)
F: https://archive.org/details/apollosbanquetco01rugg
Z: 2017 John Chambers <jc:trillian.mit.edu>
M: C|
L: 1/8
K: F
% - - - - - - - - - -
|:\
(fc)(dA) (BA)(BA) | G2F2 c3c |\
(de)(fd) (ec)(ec) | (e/f/g) g2 g3g |\
(ab) (c'a) (ba) (gf) |
(gd) (d/e/f) e2c2 |\
(fc)(dA) (BA)(GF) | g2e2 f4 ::\
(A/B/c) (dc) (BA)(GF) | (d/e/f) (gf) e2(dc) |
(e/f/g) (ag) (fe)(dc) | (dG)=B2 c3c |\
(GA)(BG) (AB)(cA) | (d/e/f) (gf) e2(dc) |\
(a/b/c') (ba) (ba) (gf) | (cd) =e2 Hf4  |]
% - - - - - - - - - -

%%sep 1 1 500
%%sep 1 1 500

